;FLAVOR:Marlin
;TIME:16572
;Filament used: 17.8866m
;Layer height: 0.3
;MINX:74.228
;MINY:18.983
;MINZ:0.28
;MAXX:174.134
;MAXY:201.017
;MAXZ:52.18
;Generated with Cura_SteamEngine 4.8.0
M82 ;absolute extrusion mode
; Ender 3 Custom Start G-code
M117 Getting the bed up to temp!
M140 S80 ; Set Heat Bed temperature
M190 S80 ; Wait for Heat Bed temperature
M117 Preheating Extruder
M104 S140; start warming extruder to 140
G28 ; Home all axes
M117 Probing Bed
G29 ; Auto bed-level (BL-Touch)
G92 E0 ; Reset Extruder
M117 Heating Extruder
M104 S200 ; Set Extruder temperature
M109 S200 ; Wait for Extruder temperature
G1 Z1.0 F3000 ; move z up little to prevent scratching of surface
G1 X0.1 Y20 Z0.3 F5000.0 ; move to start-line position
M117 Purging
G1 X0.1 Y200.0 Z0.3 F1500.0 E15 ; draw 1st line
G1 X0.4 Y200.0 Z0.3 F5000.0 ; move to side a little
G1 X0.4 Y20 Z0.3 F1500.0 E30 ; draw 2nd line
G92 E0 ; reset extruder
G1 Z1.0 F3000 ; move z up little to prevent scratching of surface
M117 Beginning Print
; End of custom start GCode
G92 E0
G92 E0
G1 F1500 E-6.5
;LAYER_COUNT:174
;LAYER:0
M107
G0 F6000 X161.741 Y98.026 Z0.28
;TYPE:SKIRT
G1 F1500 E0
G1 F900 X161.96 Y97.701 E0.01825
G1 X162.204 Y97.411 E0.0359
G1 X162.446 Y97.215 E0.0504
G1 X162.763 Y97.001 E0.06821
G1 X163.098 Y96.823 E0.08587
G1 X163.408 Y96.73 E0.10094
G1 X163.793 Y96.651 E0.11924
G1 X164.155 Y96.614 E0.13619
G1 X167.359 Y96.613 E0.28538
G1 X167.359 Y93.523 E0.42926
G1 X167.399 Y93.146 E0.44691
G1 X167.517 Y92.786 E0.46455
G1 X167.707 Y92.459 E0.48217
G1 X167.962 Y92.178 E0.49983
G1 X168.271 Y91.958 E0.5175
G1 X168.618 Y91.806 E0.53514
G1 X169.159 Y91.723 E0.56062
G1 X172.334 Y91.723 E0.70846
G1 X172.711 Y91.763 E0.72612
G1 X173.071 Y91.881 E0.74376
G1 X173.398 Y92.071 E0.76137
G1 X173.679 Y92.326 E0.77904
G1 X173.899 Y92.635 E0.7967
G1 X174.051 Y92.982 E0.81434
G1 X174.134 Y93.523 E0.83983
G1 X174.134 Y111.303 E1.66774
G1 X174.094 Y111.68 E1.68539
G1 X173.976 Y112.04 E1.70303
G1 X173.786 Y112.367 E1.72064
G1 X173.531 Y112.648 E1.73831
G1 X173.222 Y112.868 E1.75597
G1 X172.875 Y113.02 E1.77361
G1 X172.334 Y113.103 E1.7991
G1 X169.159 Y113.103 E1.94694
G1 X168.782 Y113.063 E1.96459
G1 X168.422 Y112.945 E1.98223
G1 X168.095 Y112.755 E1.99984
G1 X167.814 Y112.5 E2.01751
G1 X167.594 Y112.191 E2.03518
G1 X167.442 Y111.844 E2.05282
G1 X167.359 Y111.303 E2.0783
G1 X167.359 Y108.213 E2.22218
G1 X164.156 Y108.213 E2.37133
G1 X163.806 Y108.179 E2.3877
G1 X163.428 Y108.104 E2.40565
G1 X163.066 Y107.991 E2.42331
G1 X162.772 Y107.831 E2.43889
G1 X162.447 Y107.612 E2.45714
G1 X162.157 Y107.368 E2.47479
G1 X161.961 Y107.126 E2.48929
G1 X161.747 Y106.809 E2.5071
G1 X161.569 Y106.474 E2.52476
G1 X161.476 Y106.164 E2.53983
G1 X161.397 Y105.779 E2.55813
G1 X161.36 Y105.417 E2.57508
G1 X161.359 Y99.41 E2.85479
G1 X161.393 Y99.06 E2.87116
G1 X161.468 Y98.682 E2.88911
G1 X161.581 Y98.32 E2.90677
G1 X161.741 Y98.026 E2.92235
G0 F6000 X162.073 Y98.25
G1 F900 X162.292 Y97.925 E2.9406
G1 X162.51 Y97.672 E2.95615
G1 X162.67 Y97.547 E2.96561
G1 X162.987 Y97.333 E2.98342
G1 X163.284 Y97.18 E2.99897
G1 X163.489 Y97.122 E3.00889
G1 X163.874 Y97.043 E3.02719
G1 X164.155 Y97.014 E3.04035
G1 X167.759 Y97.013 E3.20816
G1 X167.759 Y93.523 E3.37067
G1 X167.799 Y93.191 E3.38624
G1 X167.916 Y92.879 E3.40176
G1 X168.104 Y92.602 E3.41735
G1 X168.352 Y92.379 E3.43288
G1 X168.646 Y92.22 E3.44844
G1 X168.97 Y92.136 E3.46403
G1 X169.159 Y92.123 E3.47285
G1 X172.334 Y92.123 E3.62069
G1 X172.666 Y92.163 E3.63626
G1 X172.978 Y92.28 E3.65178
G1 X173.255 Y92.468 E3.66737
G1 X173.478 Y92.716 E3.6829
G1 X173.637 Y93.01 E3.69846
G1 X173.721 Y93.334 E3.71405
G1 X173.734 Y93.523 E3.72287
G1 X173.734 Y111.303 E4.55078
G1 X173.694 Y111.635 E4.56635
G1 X173.577 Y111.947 E4.58187
G1 X173.389 Y112.224 E4.59745
G1 X173.141 Y112.447 E4.61298
G1 X172.847 Y112.606 E4.62855
G1 X172.523 Y112.69 E4.64413
G1 X172.334 Y112.703 E4.65295
G1 X169.159 Y112.703 E4.8008
G1 X168.827 Y112.663 E4.81637
G1 X168.515 Y112.546 E4.83188
G1 X168.238 Y112.358 E4.84747
G1 X168.015 Y112.11 E4.863
G1 X167.856 Y111.816 E4.87856
G1 X167.772 Y111.492 E4.89415
G1 X167.759 Y111.303 E4.90297
G1 X167.759 Y107.813 E5.06548
G1 X164.156 Y107.813 E5.23325
G1 X163.884 Y107.786 E5.24598
G1 X163.506 Y107.711 E5.26392
G1 X163.188 Y107.608 E5.27949
G1 X162.996 Y107.499 E5.28977
G1 X162.671 Y107.28 E5.30802
G1 X162.418 Y107.062 E5.32357
G1 X162.293 Y106.902 E5.33302
G1 X162.079 Y106.585 E5.35083
G1 X161.926 Y106.288 E5.36639
G1 X161.868 Y106.083 E5.37631
G1 X161.789 Y105.698 E5.39461
G1 X161.76 Y105.417 E5.40776
G1 X161.759 Y99.41 E5.68748
G1 X161.786 Y99.138 E5.7002
G1 X161.861 Y98.76 E5.71815
G1 X161.964 Y98.442 E5.73371
G1 X162.073 Y98.25 E5.74399
G0 F6000 X162.405 Y98.473
G1 F900 X162.624 Y98.148 E5.76224
G1 X162.893 Y97.878 E5.77999
G1 X163.21 Y97.664 E5.7978
G1 X163.569 Y97.513 E5.81593
G1 X163.954 Y97.434 E5.83423
G1 X164.155 Y97.414 E5.84364
G1 X168.159 Y97.413 E6.03008
G1 X168.159 Y93.523 E6.21122
G1 X168.199 Y93.244 E6.22434
G1 X168.315 Y92.987 E6.23747
G1 X168.498 Y92.772 E6.25062
G1 X168.734 Y92.618 E6.26374
G1 X169.004 Y92.535 E6.27689
G1 X169.159 Y92.523 E6.28413
G1 X172.334 Y92.523 E6.43197
G1 X172.613 Y92.563 E6.4451
G1 X172.87 Y92.679 E6.45823
G1 X173.085 Y92.862 E6.47137
G1 X173.239 Y93.098 E6.4845
G1 X173.322 Y93.368 E6.49765
G1 X173.334 Y93.523 E6.50489
G1 X173.334 Y111.303 E7.3328
G1 X173.294 Y111.582 E7.34592
G1 X173.178 Y111.839 E7.35905
G1 X172.995 Y112.054 E7.3722
G1 X172.759 Y112.208 E7.38532
G1 X172.489 Y112.291 E7.39847
G1 X172.334 Y112.303 E7.40571
G1 X169.159 Y112.303 E7.55355
G1 X168.88 Y112.263 E7.56668
G1 X168.623 Y112.147 E7.57981
G1 X168.408 Y111.964 E7.59295
G1 X168.254 Y111.728 E7.60608
G1 X168.171 Y111.458 E7.61923
G1 X168.159 Y111.303 E7.62647
G1 X168.159 Y107.413 E7.8076
G1 X164.156 Y107.413 E7.994
G1 X163.961 Y107.394 E8.00312
G1 X163.583 Y107.319 E8.02107
G1 X163.219 Y107.167 E8.03943
G1 X162.894 Y106.948 E8.05768
G1 X162.624 Y106.679 E8.07543
G1 X162.41 Y106.362 E8.09324
G1 X162.259 Y106.003 E8.11137
G1 X162.18 Y105.618 E8.12968
G1 X162.16 Y105.417 E8.13908
G1 X162.159 Y99.41 E8.41879
G1 X162.178 Y99.215 E8.42792
G1 X162.253 Y98.837 E8.44586
G1 X162.405 Y98.473 E8.46423
G0 F6000 X162.736 Y98.697
G1 F900 X162.955 Y98.372 E8.48248
G1 X163.117 Y98.21 E8.49314
G1 X163.434 Y97.996 E8.51095
G1 X163.649 Y97.905 E8.52182
G1 X164.034 Y97.826 E8.54013
G1 X164.155 Y97.814 E8.54579
G1 X168.559 Y97.813 E8.75086
G1 X168.559 Y93.523 E8.95062
G1 X168.599 Y93.308 E8.9608
G1 X168.712 Y93.122 E8.97093
G1 X168.885 Y92.989 E8.98109
G1 X169.159 Y92.923 E8.99422
G1 X172.334 Y92.923 E9.14206
G1 X172.549 Y92.963 E9.15224
G1 X172.735 Y93.076 E9.16238
G1 X172.868 Y93.249 E9.17254
G1 X172.934 Y93.523 E9.18566
G1 X172.934 Y111.303 E10.01357
G1 X172.894 Y111.518 E10.02376
G1 X172.781 Y111.704 E10.03389
G1 X172.608 Y111.837 E10.04405
G1 X172.334 Y111.903 E10.05717
G1 X169.159 Y111.903 E10.20502
G1 X168.944 Y111.863 E10.2152
G1 X168.758 Y111.75 E10.22533
G1 X168.625 Y111.577 E10.23549
G1 X168.559 Y111.303 E10.24862
G1 X168.559 Y107.013 E10.44838
G1 X164.156 Y107.013 E10.6534
G1 X164.039 Y107.002 E10.65887
G1 X163.661 Y106.927 E10.67682
G1 X163.443 Y106.836 E10.68782
G1 X163.118 Y106.617 E10.70606
G1 X162.956 Y106.455 E10.71673
G1 X162.742 Y106.138 E10.73454
G1 X162.651 Y105.923 E10.74541
G1 X162.572 Y105.538 E10.76371
G1 X162.56 Y105.417 E10.76938
G1 X162.559 Y99.41 E11.04909
G1 X162.57 Y99.293 E11.05456
G1 X162.645 Y98.915 E11.0725
G1 X162.736 Y98.697 E11.0835
G0 F6000 X163.068 Y98.92
G1 F900 X163.287 Y98.595 E11.10175
G1 X163.341 Y98.541 E11.10531
G1 X163.658 Y98.327 E11.12312
G1 X163.73 Y98.297 E11.12675
G1 X164.115 Y98.218 E11.14505
G1 X164.155 Y98.214 E11.14692
G1 X168.959 Y98.213 E11.37062
G1 X168.959 Y93.523 E11.589
G1 X168.998 Y93.404 E11.59483
G1 X169.159 Y93.323 E11.60323
G1 X172.334 Y93.323 E11.75107
G1 X172.453 Y93.362 E11.7569
G1 X172.534 Y93.523 E11.76529
G1 X172.534 Y111.303 E12.5932
G1 X172.495 Y111.422 E12.59903
G1 X172.334 Y111.503 E12.60742
G1 X169.159 Y111.503 E12.75527
G1 X169.04 Y111.464 E12.7611
G1 X168.959 Y111.303 E12.76949
G1 X168.959 Y106.613 E12.98787
G1 X164.156 Y106.613 E13.21152
G1 X164.117 Y106.609 E13.21335
G1 X163.739 Y106.534 E13.23129
G1 X163.666 Y106.504 E13.23497
G1 X163.341 Y106.285 E13.25322
G1 X163.287 Y106.231 E13.25677
G1 X163.073 Y105.914 E13.27458
G1 X163.043 Y105.842 E13.27821
G1 X162.964 Y105.457 E13.29651
G1 X162.96 Y105.417 E13.29839
G1 X162.959 Y99.41 E13.5781
G1 X162.963 Y99.371 E13.57992
G1 X163.038 Y98.993 E13.59787
G1 X163.068 Y98.92 E13.60154
G1 F1500 E7.10154
G0 F6000 X162.681 Y98.662
G0 X145.772 Y20.783
G1 F1500 E13.60154
G1 F900 X145.772 Y199.217 E21.91018
G1 X145.732 Y199.594 E21.92783
G1 X145.614 Y199.954 E21.94547
G1 X145.424 Y200.281 E21.96308
G1 X145.169 Y200.562 E21.98075
G1 X144.86 Y200.782 E21.99841
G1 X144.513 Y200.934 E22.01605
G1 X143.972 Y201.017 E22.04154
G1 X76.028 Y201.017 E25.2053
G1 X75.651 Y200.977 E25.22295
G1 X75.291 Y200.859 E25.24059
G1 X74.964 Y200.669 E25.2582
G1 X74.683 Y200.414 E25.27587
G1 X74.463 Y200.105 E25.29353
G1 X74.311 Y199.758 E25.31117
G1 X74.228 Y199.217 E25.33666
G1 X74.228 Y20.783 E33.64529
G1 X74.268 Y20.406 E33.66294
G1 X74.386 Y20.046 E33.68059
G1 X74.576 Y19.719 E33.6982
G1 X74.831 Y19.438 E33.71586
G1 X75.14 Y19.218 E33.73353
G1 X75.487 Y19.066 E33.75117
G1 X76.028 Y18.983 E33.77665
G1 X143.972 Y18.983 E36.94041
G1 X144.349 Y19.023 E36.95806
G1 X144.709 Y19.141 E36.9757
G1 X145.036 Y19.331 E36.99331
G1 X145.317 Y19.586 E37.01098
G1 X145.537 Y19.895 E37.02865
G1 X145.689 Y20.242 E37.04629
G1 X145.772 Y20.783 E37.07177
G0 F6000 X145.372 Y20.783
G1 F900 X145.372 Y199.217 E45.38041
G1 X145.332 Y199.549 E45.39598
G1 X145.215 Y199.861 E45.41149
G1 X145.027 Y200.138 E45.42708
G1 X144.779 Y200.361 E45.44261
G1 X144.485 Y200.52 E45.45818
G1 X144.161 Y200.604 E45.47376
G1 X143.972 Y200.617 E45.48258
G1 X76.028 Y200.617 E48.64634
G1 X75.696 Y200.577 E48.66191
G1 X75.384 Y200.46 E48.67743
G1 X75.107 Y200.272 E48.69302
G1 X74.884 Y200.024 E48.70855
G1 X74.725 Y199.73 E48.72411
G1 X74.641 Y199.406 E48.73969
G1 X74.628 Y199.217 E48.74852
G1 X74.628 Y20.783 E57.05715
G1 X74.668 Y20.451 E57.07272
G1 X74.785 Y20.139 E57.08824
G1 X74.973 Y19.862 E57.10383
G1 X75.221 Y19.639 E57.11936
G1 X75.515 Y19.48 E57.13492
G1 X75.839 Y19.396 E57.15051
G1 X76.028 Y19.383 E57.15933
G1 X143.972 Y19.383 E60.32308
G1 X144.304 Y19.423 E60.33865
G1 X144.616 Y19.54 E60.35417
G1 X144.893 Y19.728 E60.36976
G1 X145.116 Y19.976 E60.38529
G1 X145.275 Y20.27 E60.40085
G1 X145.359 Y20.594 E60.41644
G1 X145.372 Y20.783 E60.42526
G0 F6000 X144.972 Y20.783
G1 F900 X144.972 Y199.217 E68.73389
G1 X144.932 Y199.496 E68.74702
G1 X144.816 Y199.753 E68.76015
G1 X144.633 Y199.968 E68.77329
G1 X144.397 Y200.122 E68.78642
G1 X144.127 Y200.205 E68.79957
G1 X143.972 Y200.217 E68.80681
G1 X76.028 Y200.217 E71.97057
G1 X75.749 Y200.177 E71.98369
G1 X75.492 Y200.061 E71.99682
G1 X75.277 Y199.878 E72.00997
G1 X75.123 Y199.642 E72.02309
G1 X75.04 Y199.372 E72.03624
G1 X75.028 Y199.217 E72.04348
G1 X75.028 Y20.783 E80.35212
G1 X75.068 Y20.504 E80.36524
G1 X75.184 Y20.247 E80.37837
G1 X75.367 Y20.032 E80.39152
G1 X75.603 Y19.878 E80.40464
G1 X75.873 Y19.795 E80.41779
G1 X76.028 Y19.783 E80.42503
G1 X143.972 Y19.783 E83.58879
G1 X144.251 Y19.823 E83.60191
G1 X144.508 Y19.939 E83.61504
G1 X144.723 Y20.122 E83.62819
G1 X144.877 Y20.358 E83.64131
G1 X144.96 Y20.628 E83.65446
G1 X144.972 Y20.783 E83.6617
G0 F6000 X144.572 Y20.783
G1 F900 X144.572 Y199.217 E91.97034
G1 X144.532 Y199.432 E91.98052
G1 X144.419 Y199.618 E91.99065
G1 X144.246 Y199.751 E92.00081
G1 X143.972 Y199.817 E92.01394
G1 X76.028 Y199.817 E95.17769
G1 X75.813 Y199.777 E95.18788
G1 X75.627 Y199.664 E95.19801
G1 X75.494 Y199.491 E95.20817
G1 X75.428 Y199.217 E95.2213
G1 X75.428 Y20.783 E103.52993
G1 X75.468 Y20.568 E103.54011
G1 X75.581 Y20.382 E103.55025
G1 X75.754 Y20.249 E103.56041
G1 X76.028 Y20.183 E103.57353
G1 X143.972 Y20.183 E106.73729
G1 X144.187 Y20.223 E106.74747
G1 X144.373 Y20.336 E106.75761
G1 X144.506 Y20.509 E106.76777
G1 X144.572 Y20.783 E106.78089
G0 F6000 X144.172 Y20.783
G1 F900 X144.172 Y199.217 E115.08953
G1 X144.133 Y199.336 E115.09536
G1 X143.972 Y199.417 E115.10375
G1 X76.028 Y199.417 E118.26751
G1 X75.909 Y199.378 E118.27334
G1 X75.828 Y199.217 E118.28173
G1 X75.828 Y20.783 E126.59036
G1 X75.867 Y20.664 E126.5962
G1 X76.028 Y20.583 E126.60459
G1 X143.972 Y20.583 E129.76834
G1 X144.091 Y20.622 E129.77418
G1 X144.172 Y20.783 E129.78257
G1 F1500 E123.28257
;MESH:uHousing.stl
G0 F6000 X143.552 Y21.203
G0 X143.472 Y198.747
G0 X143.772 Y199.017
;TYPE:WALL-OUTER
G1 F1500 E129.78257
G1 F900 X76.228 Y199.017 E132.9277
G1 X76.228 Y20.983 E141.21771
G1 X143.772 Y20.983 E144.36284
G1 X143.772 Y199.017 E152.65285
G0 F6000 X143.372 Y198.617
;TYPE:WALL-INNER
G1 F900 X76.628 Y198.617 E155.76073
G1 X76.628 Y21.383 E164.01349
G1 X143.372 Y21.383 E167.12137
G1 X143.372 Y198.617 E175.37412
G0 F6000 X142.982 Y198.227
;TYPE:SKIN
G1 F900 X77.018 Y198.227 E178.44568
G1 X77.018 Y21.773 E186.66212
G1 X142.982 Y21.773 E189.73368
G1 X142.982 Y198.227 E197.95012
G1 F1500 E191.45012
G0 F6000 X143.262 Y198.227
G0 X77.575 Y198.507
G0 X77.575 Y198.066
G1 F1500 E197.95012
G1 F900 X77.177 Y197.668 E197.97633
G0 F6000 X77.177 Y197.103
G1 F900 X78.14 Y198.066 E198.03974
G0 F6000 X78.706 Y198.066
G1 F900 X77.177 Y196.537 E198.14043
G0 F6000 X77.177 Y195.971
G1 F900 X79.272 Y198.066 E198.27839
G0 F6000 X79.838 Y198.066
G1 F900 X77.177 Y195.406 E198.45359
G0 F6000 X77.177 Y194.84
G1 F900 X80.403 Y198.066 E198.66603
G0 F6000 X80.969 Y198.066
G1 F900 X77.177 Y194.274 E198.91574
G0 F6000 X77.177 Y193.709
G1 F900 X81.535 Y198.066 E199.20268
G0 F6000 X82.1 Y198.066
G1 F900 X77.177 Y193.143 E199.52687
G0 F6000 X77.177 Y192.577
G1 F900 X82.666 Y198.066 E199.88833
G0 F6000 X83.232 Y198.066
G1 F900 X77.177 Y192.012 E200.28703
G0 F6000 X77.177 Y191.446
G1 F900 X83.797 Y198.066 E200.72297
G0 F6000 X84.363 Y198.066
G1 F900 X77.177 Y190.88 E201.19618
G0 F6000 X77.177 Y190.314
G1 F900 X84.929 Y198.066 E201.70666
G0 F6000 X85.494 Y198.066
G1 F900 X77.177 Y189.749 E202.25435
G0 F6000 X77.177 Y189.183
G1 F900 X86.06 Y198.066 E202.83931
G0 F6000 X86.626 Y198.066
G1 F900 X77.177 Y188.617 E203.46155
G0 F6000 X77.177 Y188.052
G1 F900 X87.191 Y198.066 E204.12098
G0 F6000 X87.757 Y198.066
G1 F900 X77.177 Y187.486 E204.8177
G0 F6000 X77.177 Y186.92
G1 F900 X88.323 Y198.066 E205.55168
G0 F6000 X88.888 Y198.066
G1 F900 X77.177 Y186.355 E206.32287
G0 F6000 X77.177 Y185.789
G1 F900 X89.454 Y198.066 E207.13133
G0 F6000 X90.02 Y198.066
G1 F900 X77.177 Y185.223 E207.97706
G0 F6000 X77.177 Y184.658
G1 F900 X90.586 Y198.066 E208.86004
G0 F6000 X91.151 Y198.066
G1 F900 X77.177 Y184.092 E209.78025
G0 F6000 X77.177 Y183.526
G1 F900 X91.717 Y198.066 E210.73773
G0 F6000 X92.283 Y198.066
G1 F900 X77.177 Y182.961 E211.73245
G0 F6000 X77.177 Y182.395
G1 F900 X92.848 Y198.066 E212.76442
G0 F6000 X93.414 Y198.066
G1 F900 X77.177 Y181.829 E213.83365
G0 F6000 X77.177 Y181.263
G1 F900 X93.98 Y198.066 E214.94016
G0 F6000 X94.545 Y198.066
G1 F900 X77.177 Y180.698 E216.08387
G0 F6000 X77.177 Y180.132
G1 F900 X95.111 Y198.066 E217.26485
G0 F6000 X95.677 Y198.066
G1 F900 X77.177 Y179.566 E218.48311
G0 F6000 X77.177 Y179.001
G1 F900 X96.242 Y198.066 E219.73857
G0 F6000 X96.808 Y198.066
G1 F900 X77.177 Y178.435 E221.03131
G0 F6000 X77.177 Y177.869
G1 F900 X97.374 Y198.066 E222.36131
G0 F6000 X97.939 Y198.066
G1 F900 X77.177 Y177.304 E223.72853
G0 F6000 X77.177 Y176.738
G1 F900 X98.505 Y198.066 E225.13301
G0 F6000 X99.071 Y198.066
G1 F900 X77.177 Y176.172 E226.57477
G0 F6000 X77.177 Y175.607
G1 F900 X99.637 Y198.066 E228.05377
G0 F6000 X100.202 Y198.066
G1 F900 X77.177 Y175.041 E229.57
G0 F6000 X77.177 Y174.475
G1 F900 X100.768 Y198.066 E231.12351
G0 F6000 X101.334 Y198.066
G1 F900 X77.177 Y173.91 E232.71426
G0 F6000 X77.177 Y173.344
G1 F900 X101.899 Y198.066 E234.34224
G0 F6000 X102.465 Y198.066
G1 F900 X77.177 Y172.778 E236.0075
G0 F6000 X77.177 Y172.213
G1 F900 X103.031 Y198.066 E237.71
